; G-Code generated by Simplify3D(R) Version 3.1.1
; mar. 26, 2017 at 11:00:22 P. M.
; Settings Summary
;   processName,Process1
;   applyToModels,mega_stand
;   profileName,Ormerod PLA (modified)
;   profileVersion,2017-03-18 10:00:13
;   baseProfile,Default
;   printMaterial,Smartfil Cobalt
;   printQuality,Medium
;   printExtruders,
;   extruderName,Extruder 1
;   extruderToolheadNumber,0
;   extruderDiameter,0.5
;   extruderAutoWidth,0
;   extruderWidth,0.49
;   extrusionMultiplier,1
;   extruderUseRetract,1
;   extruderRetractionDistance,4
;   extruderExtraRestartDistance,0.05
;   extruderRetractionZLift,0.5
;   extruderRetractionSpeed,1200
;   extruderUseCoasting,0
;   extruderCoastingDistance,0.2
;   extruderUseWipe,0
;   extruderWipeDistance,5
;   primaryExtruder,0
;   layerHeight,0.25
;   topSolidLayers,3
;   bottomSolidLayers,3
;   perimeterOutlines,2
;   printPerimetersInsideOut,0
;   startPointOption,3
;   startPointOriginX,100
;   startPointOriginY,0
;   startPointOriginZ,200
;   sequentialIslands,1
;   spiralVaseMode,0
;   firstLayerHeightPercentage,100
;   firstLayerWidthPercentage,100
;   firstLayerUnderspeed,0.45
;   useRaft,0
;   raftExtruder,0
;   raftLayers,3
;   raftOffset,3
;   raftSeparationDistance,0.14
;   raftInfill,85
;   disableRaftBaseLayers,0
;   useSkirt,1
;   skirtExtruder,0
;   skirtLayers,1
;   skirtOutlines,2
;   skirtOffset,5
;   usePrimePillar,0
;   primePillarExtruder,999
;   primePillarWidth,12
;   primePillarLocation,7
;   primePillarSpeedMultiplier,1
;   useOozeShield,0
;   oozeShieldExtruder,999
;   oozeShieldOffset,2
;   oozeShieldOutlines,1
;   oozeShieldSidewallShape,1
;   oozeShieldSidewallAngle,30
;   oozeShieldSpeedMultiplier,1
;   infillExtruder,0
;   internalInfillPattern,Grid
;   externalInfillPattern,Rectilinear
;   infillPercentage,15
;   outlineOverlapPercentage,30
;   infillExtrusionWidthPercentage,100
;   minInfillLength,5
;   infillLayerInterval,1
;   infillAngles,45,-45
;   overlapInfillAngles,0
;   generateSupport,1
;   supportExtruder,0
;   supportInfillPercentage,15
;   supportExtraInflation,0.1
;   denseSupportLayers,0
;   denseSupportInfillPercentage,60
;   supportLayerInterval,1
;   supportHorizontalPartOffset,0.5
;   supportUpperSeparationLayers,1
;   supportLowerSeparationLayers,1
;   supportType,0
;   supportGridSpacing,3
;   maxOverhangAngle,45
;   supportAngles,45
;   temperatureName,Extruder 1 Temperature,Hot Platform
;   temperatureNumber,0,0
;   temperatureSetpointCount,1,1
;   temperatureSetpointLayers,1,1
;   temperatureSetpointTemperatures,215,30
;   temperatureStabilizeAtStartup,1,1
;   temperatureHeatedBed,0,1
;   temperatureRelayBetweenLayers,0,0
;   temperatureRelayBetweenLoops,0,0
;   fanLayers,1,2
;   fanSpeeds,0,20
;   blipFanToFullPower,0
;   adjustSpeedForCooling,1
;   minSpeedLayerTime,15
;   minCoolingSpeedSlowdown,20
;   increaseFanForCooling,0
;   minFanLayerTime,45
;   maxCoolingFanSpeed,100
;   increaseFanForBridging,0
;   bridgingFanSpeed,100
;   use5D,1
;   relativeEdistances,0
;   allowEaxisZeroing,1
;   independentExtruderAxes,0
;   includeM10123,0
;   stickySupport,1
;   applyToolheadOffsets,0
;   gcodeXoffset,0
;   gcodeYoffset,0
;   gcodeZoffset,0
;   overrideMachineDefinition,1
;   machineTypeOverride,0
;   strokeXoverride,200
;   strokeYoverride,200
;   strokeZoverride,170
;   originOffsetXoverride,0
;   originOffsetYoverride,0
;   originOffsetZoverride,0
;   homeXdirOverride,-1
;   homeYdirOverride,-1
;   homeZdirOverride,-1
;   flipXoverride,1
;   flipYoverride,-1
;   flipZoverride,1
;   toolheadOffsets,0,0|0,0|0,0|0,0|0,0|0,0
;   overrideFirmwareConfiguration,0
;   firmwareTypeOverride,RepRap (Marlin/Repetier/Sprinter)
;   GPXconfigOverride,r2
;   baudRateOverride,115200
;   overridePrinterModels,0
;   printerModelsOverride
;   startingGcode,;Simplify Starting Script,T0 	;Activar extrusor,M116	;Esperar arrivar temperatures,G28 	;Home All,G32 	;Scanneix per Autonivellar taula,,
;   layerChangeGcode,
;   retractionGcode,
;   toolChangeGcode,
;   endingGcode,;Simplify Ending Script,G1 X0 Y150  ;Elevacio Head Fins que toca els finals de carrera,M106 S0	; Aturar Ventilador de Capa,T99 	;Selecio un altra Tool per ficar T0 en Standby.,M144 	;Standby the bed,M18	;Steppers Power Off. Requires ReHoming.
;   exportFileFormat,gcode
;   celebration,0
;   celebrationSong,Random Song
;   postProcessing,
;   defaultSpeed,2700
;   outlineUnderspeed,0.5
;   solidInfillUnderspeed,0.8
;   supportUnderspeed,0.8
;   rapidXYspeed,3000
;   rapidZspeed,3000
;   minBridgingArea,50
;   bridgingExtraInflation,0.1
;   bridgingExtrusionMultiplier,1
;   bridgingSpeedMultiplier,0.25
;   filamentDiameter,1.75
;   filamentPricePerKg,23
;   filamentDensity,1.24
;   useMinPrintHeight,0
;   minPrintHeight,98
;   useMaxPrintHeight,0
;   maxPrintHeight,10
;   useDiaphragm,0
;   diaphragmLayerInterval,20
;   robustSlicing,1
;   mergeAllIntoSolid,0
;   onlyRetractWhenCrossingOutline,1
;   retractBetweenLayers,1
;   useRetractionMinTravel,0
;   retractionMinTravel,3
;   retractWhileWiping,0
;   onlyWipeOutlines,1
;   avoidCrossingOutline,0
;   maxMovementDetourFactor,3
;   toolChangeRetractionDistance,12
;   toolChangeExtraRestartDistance,-0.5
;   toolChangeRetractionSpeed,600
;   allowThinWallGapFill,1
;   thinWallAllowedOverlapPercentage,10
;   horizontalSizeCompensation,0
G90
M82
M106 S0
M140 S30
M190 S30
M104 S215 T0
M109 S215 T0
;Simplify Starting Script
T0 	;Activar extrusor
M116	;Esperar arrivar temperatures
G28 	;Home All
G32 	;Scanneix per Autonivellar taula
G92 E0
G1 E-4.0000 F1200
G1 Z0.750 F3000
; layer 1, Z = 0.25
T0
; tool H0.250 W0.490
; skirt
G1 X66.627 Y44.513 F3000
G1 Z0.250 F3000
G1 E0.0500 F360
G92 E0
G1 X69.763 Y41.377 E0.2258 F1215
G1 X70.033 Y41.265 E0.2407
G1 X129.967 Y41.265 E3.2932
G1 X130.237 Y41.377 E3.3081
G1 X133.373 Y44.513 E3.5339
G1 X133.485 Y44.783 E3.5488
G1 X133.485 Y156.564 E9.2418
G1 X133.237 Y156.935 E9.2645
G1 X126.652 Y159.662 E9.6275
G1 X126.215 Y159.575 E9.6502
G1 X125.374 Y158.735 E9.7107
G1 X74.626 Y158.735 E12.2954
G1 X73.785 Y159.575 E12.3559
G1 X73.348 Y159.662 E12.3786
G1 X66.763 Y156.935 E12.7416
G1 X66.515 Y156.564 E12.7643
G1 X66.515 Y44.783 E18.4573
G1 X66.627 Y44.513 E18.4722
G1 X67.042 Y44.790 F3000
G92 E0
G1 X70.040 Y41.792 E0.2159 F1215
G1 X70.130 Y41.755 E0.2209
G1 X129.870 Y41.755 E3.2634
G1 X129.960 Y41.792 E3.2684
G1 X132.958 Y44.790 E3.4843
G1 X132.995 Y44.880 E3.4892
G1 X132.995 Y156.415 E9.1697
G1 X132.912 Y156.539 E9.1772
G1 X126.602 Y159.153 E9.5251
G1 X126.456 Y159.124 E9.5327
G1 X125.577 Y158.245 E9.5960
G1 X74.423 Y158.245 E12.2013
G1 X73.544 Y159.124 E12.2646
G1 X73.398 Y159.153 E12.2721
G1 X67.088 Y156.539 E12.6200
G1 X67.005 Y156.415 E12.6276
G1 X67.005 Y44.880 E18.3080
G1 X67.042 Y44.790 E18.3130
G92 E0
G1 E-4.0000 F1200
G1 Z0.750 F3000
; outer perimeter
G1 X124.505 Y152.755 F3000
G1 Z0.250 F3000
G1 E0.0500 F1200
G92 E0
G1 X75.495 Y152.755 E2.4961 F608
G1 X75.495 Y149.255 E2.6743
G1 X74.495 Y149.255 E2.7252
G1 X74.495 Y135.255 E3.4383
G1 X73.005 Y135.255 E3.5141
G1 X73.005 Y150.745 E4.3030
G1 X74.159 Y150.745 E4.3618
G1 X72.495 Y152.409 E4.4816
G1 X72.495 Y47.245 E9.8375
G1 X127.505 Y47.245 E12.6392
G1 X127.505 Y152.409 E17.9951
G1 X125.841 Y150.745 E18.1149
G1 X126.995 Y150.745 E18.1737
G1 X126.995 Y135.255 E18.9626
G1 X125.505 Y135.255 E19.0385
G1 X125.505 Y149.255 E19.7515
G1 X124.505 Y149.255 E19.8024
G1 X124.505 Y152.755 E19.9807
; inner perimeter
G1 X124.015 Y152.265 F3000
G92 E0
G1 X75.985 Y152.265 E2.4461 F911
G1 X75.985 Y148.765 E2.6244
G1 X74.985 Y148.765 E2.6753
G1 X74.985 Y134.765 E3.3883
G1 X72.985 Y134.765 E3.4902
G1 X72.985 Y47.735 E7.9226
G1 X127.015 Y47.735 E10.6743
G1 X127.015 Y134.765 E15.1067
G1 X125.015 Y134.765 E15.2086
G1 X125.015 Y148.765 E15.9216
G1 X124.015 Y148.765 E15.9725
G1 X124.015 Y152.265 E16.1508
G92 E0
G1 E-4.0000 F1200
G1 Z0.750 F3000
; gap fill
G1 X126.839 Y151.093 F3000
G1 Z0.250 F3000
G1 E0.0500 F1200
G92 E0
G1 X127.157 Y151.411 E0.0229 F972
G92 E0
G1 E-4.0000 F1200
G1 Z0.750 F3000
G1 X73.053 Y151.358 F3000
G1 Z0.250 F3000
G1 E0.0500 F1200
G92 E0
G1 X72.843 Y151.148 E0.0152 F972
G92 E0
G1 E-4.0000 F1200
G1 Z0.750 F3000
; solid layer
G1 X76.389 Y151.922 F3000
G1 Z0.250 F3000
G1 E0.0500 F1200
G92 E0
G1 X76.328 Y151.861 E0.0044 F972
G1 X76.328 Y151.168 E0.0397
G1 X77.082 Y151.922 E0.0940
G1 X77.775 Y151.922 E0.1293
G1 X76.328 Y150.475 E0.2335
G1 X76.328 Y149.782 E0.2688
G1 X78.468 Y151.922 E0.4229
G1 X79.161 Y151.922 E0.4582
G1 X76.328 Y149.089 E0.6622
G1 X76.328 Y148.422 E0.6962
G1 X75.661 Y148.422 E0.7302
G1 X75.328 Y148.089 E0.7541
G1 X75.328 Y147.396 E0.7894
G1 X79.854 Y151.922 E1.1154
G1 X80.547 Y151.922 E1.1507
G1 X75.328 Y146.703 E1.5266
G1 X75.328 Y146.010 E1.5618
G1 X81.240 Y151.922 E1.9876
G1 X81.933 Y151.922 E2.0229
G1 X75.328 Y145.317 E2.4986
G1 X75.328 Y144.624 E2.5339
G1 X82.626 Y151.922 E3.0595
G1 X83.319 Y151.922 E3.0948
G1 X75.328 Y143.931 E3.6703
G1 X75.328 Y143.239 E3.7056
G1 X84.011 Y151.922 E4.3311
G1 X84.704 Y151.922 E4.3664
G1 X75.328 Y142.546 E5.0417
G1 X75.328 Y141.853 E5.0770
G1 X85.397 Y151.922 E5.8022
G1 X86.090 Y151.922 E5.8375
G1 X75.328 Y141.160 E6.6127
G1 X75.328 Y140.467 E6.6480
G1 X86.783 Y151.922 E7.4731
G1 X87.476 Y151.922 E7.5084
G1 X75.328 Y139.774 E8.3833
G1 X75.328 Y139.081 E8.4186
G1 X88.169 Y151.922 E9.3435
G1 X88.862 Y151.922 E9.3788
G1 X75.328 Y138.388 E10.3536
G1 X75.328 Y137.695 E10.3889
G1 X89.555 Y151.922 E11.4136
G1 X90.248 Y151.922 E11.4489
G1 X75.328 Y137.002 E12.5236
G1 X75.328 Y136.309 E12.5588
G1 X90.941 Y151.922 E13.6834
G1 X91.634 Y151.922 E13.7187
G1 X75.328 Y135.616 E14.8931
G1 X73.328 Y134.309 F3000
G92 E0
G1 X73.441 Y134.422 E0.0081 F972
G1 X74.134 Y134.422 E0.0434
G1 X73.328 Y133.616 E0.1015
G1 X73.328 Y132.923 E0.1368
G1 X74.827 Y134.422 E0.2448
G1 X75.328 Y134.422 E0.2703
G1 X75.328 Y134.923 E0.2958
G1 X92.327 Y151.922 E1.5201
G1 X93.020 Y151.922 E1.5554
G1 X73.328 Y132.230 E2.9738
G1 X73.328 Y131.537 E3.0091
G1 X93.713 Y151.922 E4.4773
G1 X94.406 Y151.922 E4.5126
G1 X73.328 Y130.844 E6.0307
G1 X73.328 Y130.151 E6.0660
G1 X95.099 Y151.922 E7.6341
G1 X95.792 Y151.922 E7.6694
G1 X73.328 Y129.458 E9.2873
G1 X73.328 Y128.765 E9.3226
G1 X96.485 Y151.922 E10.9905
G1 X97.178 Y151.922 E11.0258
G1 X73.328 Y128.072 E12.7436
G1 X73.328 Y127.379 E12.7789
G1 X97.871 Y151.922 E14.5466
G1 X98.564 Y151.922 E14.5819
G1 X73.328 Y126.686 E16.3995
G1 X73.328 Y125.993 E16.4348
G1 X99.257 Y151.922 E18.3023
G1 X99.950 Y151.922 E18.3376
G1 X73.328 Y125.300 E20.2550
G1 X73.328 Y124.607 E20.2903
G1 X100.643 Y151.922 E22.2577
G1 X101.336 Y151.922 E22.2930
G1 X73.328 Y123.914 E24.3102
G1 X73.328 Y123.221 E24.3455
G1 X102.029 Y151.922 E26.4127
G1 X102.722 Y151.922 E26.4480
G1 X73.328 Y122.528 E28.5650
G1 X73.328 Y121.836 E28.6003
G1 X103.414 Y151.922 E30.7673
G1 X104.107 Y151.922 E30.8026
G1 X73.328 Y121.143 E33.0195
G1 X73.328 Y120.450 E33.0548
G1 X104.800 Y151.922 E35.3216
G1 X105.493 Y151.922 E35.3569
G1 X73.328 Y119.757 E37.6736
G1 X73.328 Y119.064 E37.7089
G1 X106.186 Y151.922 E40.0756
G1 X106.879 Y151.922 E40.1108
G1 X73.328 Y118.371 E42.5274
G1 X73.328 Y117.678 E42.5627
G1 X107.572 Y151.922 E45.0291
G1 X108.265 Y151.922 E45.0644
G1 X73.328 Y116.985 E47.5808
G1 X73.328 Y116.292 E47.6161
G1 X108.958 Y151.922 E50.1824
G1 X109.651 Y151.922 E50.2177
G1 X73.328 Y115.599 E52.8338
G1 X73.328 Y114.906 E52.8691
G1 X110.344 Y151.922 E55.5352
G1 X111.037 Y151.922 E55.5705
G1 X73.328 Y114.213 E58.2865
G1 X73.328 Y113.520 E58.3218
G1 X111.730 Y151.922 E61.0878
G1 X112.423 Y151.922 E61.1230
G1 X73.328 Y112.827 E63.9389
G1 X73.328 Y112.134 E63.9742
G1 X113.116 Y151.922 E66.8399
G1 X113.809 Y151.922 E66.8752
G1 X73.328 Y111.441 E69.7909
G1 X73.328 Y110.748 E69.8261
G1 X114.502 Y151.922 E72.7917
G1 X115.195 Y151.922 E72.8270
G1 X73.328 Y110.055 E75.8425
G1 X73.328 Y109.362 E75.8778
G1 X115.888 Y151.922 E78.9432
G1 X116.581 Y151.922 E78.9784
G1 X73.328 Y108.669 E82.0937
G1 X73.328 Y107.976 E82.1290
G1 X117.274 Y151.922 E85.2942
G1 X117.967 Y151.922 E85.3295
G1 X73.328 Y107.283 E88.5447
G1 X73.328 Y106.590 E88.5800
G1 X118.660 Y151.922 E91.8450
G1 X119.353 Y151.922 E91.8803
G1 X73.328 Y105.897 E95.1952
G1 X73.328 Y105.204 E95.2305
G1 X120.046 Y151.922 E98.5954
G1 X120.739 Y151.922 E98.6307
G1 X73.328 Y104.511 E102.0454
G1 X73.328 Y103.818 E102.0807
G1 X121.432 Y151.922 E105.5454
G1 X122.125 Y151.922 E105.5807
G1 X73.328 Y103.125 E109.0953
G1 X73.328 Y102.433 E109.1306
G1 X122.817 Y151.922 E112.6950
G1 X123.510 Y151.922 E112.7303
G1 X73.328 Y101.740 E116.3447
G1 X73.328 Y101.047 E116.3800
G1 X123.672 Y151.391 E120.0061
G1 X123.672 Y150.698 E120.0414
G1 X73.328 Y100.354 E123.6674
G1 X73.328 Y99.661 E123.7027
G1 X123.672 Y150.005 E127.3288
G1 X123.672 Y149.312 E127.3640
G1 X73.328 Y98.968 E130.9901
G1 X73.328 Y98.275 E131.0254
G1 X123.672 Y148.619 E134.6514
G1 X123.672 Y148.422 E134.6614
G1 X124.168 Y148.422 E134.6867
G1 X73.328 Y97.582 E138.3485
G1 X73.328 Y96.889 E138.3838
G1 X124.672 Y148.233 E142.0819
G1 X124.672 Y147.540 E142.1171
G1 X73.328 Y96.196 E145.8152
G1 X73.328 Y95.503 E145.8505
G1 X124.672 Y146.847 E149.5486
G1 X124.672 Y146.154 E149.5839
G1 X73.328 Y94.810 E153.2819
G1 X73.328 Y94.117 E153.3172
G1 X124.672 Y145.461 E157.0153
G1 X124.672 Y144.768 E157.0506
G1 X73.328 Y93.424 E160.7487
G1 X73.328 Y92.731 E160.7839
G1 X124.672 Y144.075 E164.4820
G1 X124.672 Y143.382 E164.5173
G1 X73.328 Y92.038 E168.2154
G1 X73.328 Y91.345 E168.2507
G1 X124.672 Y142.689 E171.9487
G1 X124.672 Y141.996 E171.9840
G1 X73.328 Y90.652 E175.6821
G1 X73.328 Y89.959 E175.7174
G1 X124.672 Y141.303 E179.4155
G1 X124.672 Y140.610 E179.4507
G1 X73.328 Y89.266 E183.1488
G1 X73.328 Y88.573 E183.1841
G1 X124.672 Y139.917 E186.8822
G1 X124.672 Y139.224 E186.9175
G1 X73.328 Y87.880 E190.6155
G1 X73.328 Y87.187 E190.6508
G1 X124.672 Y138.531 E194.3489
G1 X124.672 Y137.838 E194.3842
G1 X73.328 Y86.494 E198.0823
G1 X73.328 Y85.801 E198.1175
G1 X124.672 Y137.145 E201.8156
G1 X124.672 Y136.452 E201.8509
G1 X73.328 Y85.108 E205.5490
G1 X73.328 Y84.415 E205.5843
G1 X124.672 Y135.759 E209.2823
G1 X124.672 Y135.066 E209.3176
G1 X73.328 Y83.722 E213.0157
G1 X73.328 Y83.029 E213.0510
G1 X124.721 Y134.422 E216.7525
G1 X125.413 Y134.422 E216.7878
G1 X73.328 Y82.337 E220.5393
G1 X73.328 Y81.644 E220.5746
G1 X126.106 Y134.422 E224.3760
G1 X126.672 Y134.422 E224.4048
G1 X126.672 Y134.295 E224.4113
G1 X73.328 Y80.951 E228.2534
G1 X73.328 Y80.258 E228.2887
G1 X126.672 Y133.602 E232.1308
G1 X126.672 Y132.909 E232.1661
G1 X73.328 Y79.565 E236.0082
G1 X73.328 Y78.872 E236.0435
G1 X126.672 Y132.216 E239.8856
G1 X126.672 Y131.523 E239.9209
G1 X73.328 Y78.179 E243.7630
G1 X73.328 Y77.486 E243.7983
G1 X126.672 Y130.830 E247.6404
G1 X126.672 Y130.137 E247.6757
G1 X73.328 Y76.793 E251.5179
G1 X73.328 Y76.100 E251.5531
G1 X126.672 Y129.444 E255.3953
G1 X126.672 Y128.751 E255.4306
G1 X73.328 Y75.407 E259.2727
G1 X73.328 Y74.714 E259.3080
G1 X126.672 Y128.058 E263.1501
G1 X126.672 Y127.365 E263.1854
G1 X73.328 Y74.021 E267.0275
G1 X73.328 Y73.328 E267.0628
G1 X126.672 Y126.672 E270.9049
G1 X126.672 Y125.979 E270.9402
G1 X73.328 Y72.635 E274.7823
G1 X73.328 Y71.942 E274.8176
G1 X126.672 Y125.286 E278.6597
G1 X126.672 Y124.593 E278.6950
G1 X73.328 Y71.249 E282.5371
G1 X73.328 Y70.556 E282.5724
G1 X126.672 Y123.900 E286.4146
G1 X126.672 Y123.207 E286.4498
G1 X73.328 Y69.863 E290.2920
G1 X73.328 Y69.170 E290.3273
G1 X126.672 Y122.514 E294.1694
G1 X126.672 Y121.821 E294.2047
G1 X73.328 Y68.477 E298.0468
G1 X73.328 Y67.784 E298.0821
G1 X126.672 Y121.128 E301.9242
G1 X126.672 Y120.435 E301.9595
G1 X73.328 Y67.091 E305.8016
G1 X73.328 Y66.398 E305.8369
G1 X126.672 Y119.742 E309.6790
G1 X126.672 Y119.049 E309.7143
G1 X73.328 Y65.705 E313.5564
G1 X73.328 Y65.012 E313.5917
G1 X126.672 Y118.356 E317.4338
G1 X126.672 Y117.663 E317.4691
G1 X73.328 Y64.319 E321.3112
G1 X73.328 Y63.626 E321.3465
G1 X126.672 Y116.970 E325.1887
G1 X126.672 Y116.278 E325.2239
G1 X73.328 Y62.934 E329.0661
G1 X73.328 Y62.241 E329.1014
G1 X126.672 Y115.585 E332.9435
G1 X126.672 Y114.892 E332.9788
