; G-Code generated by Simplify3D(R) Version 3.1.1
; mar. 26, 2017 at 7:57:44 P. M.
; Settings Summary
;   processName,Process1
;   applyToModels,uno_stand
;   profileName,Ormerod PLA (modified)
;   profileVersion,2017-03-18 10:00:13
;   baseProfile,Default
;   printMaterial,Smartfil Cobalt
;   printQuality,Medium
;   printExtruders,
;   extruderName,Extruder 1
;   extruderToolheadNumber,0
;   extruderDiameter,0.5
;   extruderAutoWidth,0
;   extruderWidth,0.49
;   extrusionMultiplier,1
;   extruderUseRetract,1
;   extruderRetractionDistance,4
;   extruderExtraRestartDistance,0.05
;   extruderRetractionZLift,0.5
;   extruderRetractionSpeed,1200
;   extruderUseCoasting,0
;   extruderCoastingDistance,0.2
;   extruderUseWipe,0
;   extruderWipeDistance,5
;   primaryExtruder,0
;   layerHeight,0.25
;   topSolidLayers,3
;   bottomSolidLayers,3
;   perimeterOutlines,2
;   printPerimetersInsideOut,0
;   startPointOption,3
;   startPointOriginX,100
;   startPointOriginY,0
;   startPointOriginZ,200
;   sequentialIslands,1
;   spiralVaseMode,0
;   firstLayerHeightPercentage,100
;   firstLayerWidthPercentage,100
;   firstLayerUnderspeed,0.45
;   useRaft,0
;   raftExtruder,0
;   raftLayers,3
;   raftOffset,3
;   raftSeparationDistance,0.14
;   raftInfill,85
;   disableRaftBaseLayers,0
;   useSkirt,1
;   skirtExtruder,0
;   skirtLayers,1
;   skirtOutlines,2
;   skirtOffset,5
;   usePrimePillar,0
;   primePillarExtruder,999
;   primePillarWidth,12
;   primePillarLocation,7
;   primePillarSpeedMultiplier,1
;   useOozeShield,0
;   oozeShieldExtruder,999
;   oozeShieldOffset,2
;   oozeShieldOutlines,1
;   oozeShieldSidewallShape,1
;   oozeShieldSidewallAngle,30
;   oozeShieldSpeedMultiplier,1
;   infillExtruder,0
;   internalInfillPattern,Grid
;   externalInfillPattern,Rectilinear
;   infillPercentage,15
;   outlineOverlapPercentage,30
;   infillExtrusionWidthPercentage,100
;   minInfillLength,5
;   infillLayerInterval,1
;   infillAngles,45,-45
;   overlapInfillAngles,0
;   generateSupport,1
;   supportExtruder,0
;   supportInfillPercentage,15
;   supportExtraInflation,0.1
;   denseSupportLayers,0
;   denseSupportInfillPercentage,60
;   supportLayerInterval,1
;   supportHorizontalPartOffset,0.5
;   supportUpperSeparationLayers,1
;   supportLowerSeparationLayers,1
;   supportType,0
;   supportGridSpacing,3
;   maxOverhangAngle,45
;   supportAngles,45
;   temperatureName,Extruder 1 Temperature,Hot Platform
;   temperatureNumber,0,0
;   temperatureSetpointCount,1,1
;   temperatureSetpointLayers,1,1
;   temperatureSetpointTemperatures,215,30
;   temperatureStabilizeAtStartup,1,1
;   temperatureHeatedBed,0,1
;   temperatureRelayBetweenLayers,0,0
;   temperatureRelayBetweenLoops,0,0
;   fanLayers,1,2
;   fanSpeeds,0,20
;   blipFanToFullPower,0
;   adjustSpeedForCooling,1
;   minSpeedLayerTime,15
;   minCoolingSpeedSlowdown,20
;   increaseFanForCooling,0
;   minFanLayerTime,45
;   maxCoolingFanSpeed,100
;   increaseFanForBridging,0
;   bridgingFanSpeed,100
;   use5D,1
;   relativeEdistances,0
;   allowEaxisZeroing,1
;   independentExtruderAxes,0
;   includeM10123,0
;   stickySupport,1
;   applyToolheadOffsets,0
;   gcodeXoffset,0
;   gcodeYoffset,0
;   gcodeZoffset,0
;   overrideMachineDefinition,1
;   machineTypeOverride,0
;   strokeXoverride,200
;   strokeYoverride,200
;   strokeZoverride,170
;   originOffsetXoverride,0
;   originOffsetYoverride,0
;   originOffsetZoverride,0
;   homeXdirOverride,-1
;   homeYdirOverride,-1
;   homeZdirOverride,-1
;   flipXoverride,1
;   flipYoverride,-1
;   flipZoverride,1
;   toolheadOffsets,0,0|0,0|0,0|0,0|0,0|0,0
;   overrideFirmwareConfiguration,0
;   firmwareTypeOverride,RepRap (Marlin/Repetier/Sprinter)
;   GPXconfigOverride,r2
;   baudRateOverride,115200
;   overridePrinterModels,0
;   printerModelsOverride
;   startingGcode,;Simplify Starting Script,T0 	;Activar extrusor,M116	;Esperar arrivar temperatures,G28 	;Home All,G32 	;Scanneix per Autonivellar taula,,
;   layerChangeGcode,
;   retractionGcode,
;   toolChangeGcode,
;   endingGcode,;Simplify Ending Script,G1 X0 Y150  ;Elevacio Head Fins que toca els finals de carrera,M106 S0	; Aturar Ventilador de Capa,T99 	;Selecio un altra Tool per ficar T0 en Standby.,M144 	;Standby the bed,M18	;Steppers Power Off. Requires ReHoming.
;   exportFileFormat,gcode
;   celebration,0
;   celebrationSong,Random Song
;   postProcessing,
;   defaultSpeed,2700
;   outlineUnderspeed,0.5
;   solidInfillUnderspeed,0.8
;   supportUnderspeed,0.8
;   rapidXYspeed,3000
;   rapidZspeed,3000
;   minBridgingArea,50
;   bridgingExtraInflation,0.1
;   bridgingExtrusionMultiplier,1
;   bridgingSpeedMultiplier,0.25
;   filamentDiameter,1.75
;   filamentPricePerKg,23
;   filamentDensity,1.24
;   useMinPrintHeight,0
;   minPrintHeight,98
;   useMaxPrintHeight,0
;   maxPrintHeight,10
;   useDiaphragm,0
;   diaphragmLayerInterval,20
;   robustSlicing,1
;   mergeAllIntoSolid,0
;   onlyRetractWhenCrossingOutline,1
;   retractBetweenLayers,1
;   useRetractionMinTravel,0
;   retractionMinTravel,3
;   retractWhileWiping,0
;   onlyWipeOutlines,1
;   avoidCrossingOutline,0
;   maxMovementDetourFactor,3
;   toolChangeRetractionDistance,12
;   toolChangeExtraRestartDistance,-0.5
;   toolChangeRetractionSpeed,600
;   allowThinWallGapFill,1
;   thinWallAllowedOverlapPercentage,10
;   horizontalSizeCompensation,0
G90
M82
M106 S0
M140 S30
M190 S30
M104 S215 T0
M109 S215 T0
;Simplify Starting Script
T0 	;Activar extrusor
M116	;Esperar arrivar temperatures
G28 	;Home All
G32 	;Scanneix per Autonivellar taula
G92 E0
G1 E-4.0000 F1200
G1 Z0.750 F3000
; layer 1, Z = 0.25
T0
; tool H0.250 W0.490
; skirt
G1 X66.627 Y61.063 F3000
G1 Z0.250 F3000
G1 E0.0500 F360
G92 E0
G1 X69.763 Y57.927 E0.2258 F1215
G1 X70.033 Y57.815 E0.2407
G1 X129.967 Y57.815 E3.2932
G1 X130.237 Y57.927 E3.3081
G1 X133.373 Y61.063 E3.5339
G1 X133.485 Y61.333 E3.5488
G1 X133.485 Y140.014 E7.5560
G1 X133.237 Y140.385 E7.5787
G1 X126.652 Y143.112 E7.9417
G1 X126.215 Y143.025 E7.9644
G1 X125.374 Y142.185 E8.0250
G1 X74.626 Y142.185 E10.6096
G1 X73.785 Y143.025 E10.6701
G1 X73.348 Y143.112 E10.6928
G1 X66.763 Y140.385 E11.0558
G1 X66.515 Y140.014 E11.0785
G1 X66.515 Y61.333 E15.0857
G1 X66.627 Y61.063 E15.1006
G1 X67.042 Y61.340 F3000
G92 E0
G1 X70.040 Y58.342 E0.2159 F1215
G1 X70.130 Y58.305 E0.2209
G1 X129.870 Y58.305 E3.2634
G1 X129.960 Y58.342 E3.2684
G1 X132.958 Y61.340 E3.4843
G1 X132.995 Y61.430 E3.4892
G1 X132.995 Y139.865 E7.4839
G1 X132.912 Y139.989 E7.4915
G1 X126.602 Y142.603 E7.8393
G1 X126.456 Y142.574 E7.8469
G1 X125.577 Y141.695 E7.9102
G1 X74.423 Y141.695 E10.5155
G1 X73.544 Y142.574 E10.5788
G1 X73.398 Y142.603 E10.5864
G1 X67.088 Y139.989 E10.9342
G1 X67.005 Y139.865 E10.9418
G1 X67.005 Y61.430 E14.9365
G1 X67.042 Y61.340 E14.9414
G92 E0
G1 E-4.0000 F1200
G1 Z0.750 F3000
; outer perimeter
G1 X124.505 Y136.205 F3000
G1 Z0.250 F3000
G1 E0.0500 F1200
G92 E0
G1 X75.495 Y136.205 E2.4961 F608
G1 X75.495 Y132.705 E2.6743
G1 X74.495 Y132.705 E2.7252
G1 X74.495 Y118.705 E3.4383
G1 X73.005 Y118.705 E3.5141
G1 X73.005 Y134.195 E4.3030
G1 X74.159 Y134.195 E4.3618
G1 X72.495 Y135.859 E4.4816
G1 X72.495 Y63.795 E8.1518
G1 X127.505 Y63.795 E10.9534
G1 X127.505 Y135.859 E14.6236
G1 X125.841 Y134.195 E14.7434
G1 X126.995 Y134.195 E14.8021
G1 X126.995 Y118.705 E15.5910
G1 X125.505 Y118.705 E15.6669
G1 X125.505 Y132.705 E16.3799
G1 X124.505 Y132.705 E16.4309
G1 X124.505 Y136.205 E16.6091
; inner perimeter
G1 X124.015 Y135.715 F3000
G92 E0
G1 X75.985 Y135.715 E2.4461 F911
G1 X75.985 Y132.215 E2.6244
G1 X74.985 Y132.215 E2.6753
G1 X74.985 Y118.215 E3.3883
G1 X72.985 Y118.215 E3.4902
G1 X72.985 Y64.285 E6.2368
G1 X127.015 Y64.285 E8.9886
G1 X127.015 Y118.215 E11.7352
G1 X125.015 Y118.215 E11.8371
G1 X125.015 Y132.215 E12.5501
G1 X124.015 Y132.215 E12.6010
G1 X124.015 Y135.715 E12.7793
G92 E0
G1 E-4.0000 F1200
G1 Z0.750 F3000
; gap fill
G1 X126.920 Y134.543 F3000
G1 Z0.250 F3000
G1 E0.0500 F1200
G92 E0
G1 X127.157 Y134.780 E0.0171 F972
G92 E0
G1 E-4.0000 F1200
G1 Z0.750 F3000
G1 X73.094 Y134.768 F3000
G1 Z0.250 F3000
G1 E0.0500 F1200
G92 E0
G1 X72.869 Y134.543 E0.0162 F972
G92 E0
G1 E-4.0000 F1200
G1 Z0.750 F3000
; solid layer
G1 X76.470 Y135.372 F3000
G1 Z0.250 F3000
G1 E0.0500 F1200
G92 E0
G1 X76.328 Y135.230 E0.0102 F972
G1 X76.328 Y134.537 E0.0455
G1 X77.163 Y135.372 E0.1057
G1 X77.856 Y135.372 E0.1410
G1 X76.328 Y133.844 E0.2510
G1 X76.328 Y133.151 E0.2863
G1 X78.549 Y135.372 E0.4463
G1 X79.242 Y135.372 E0.4815
G1 X76.328 Y132.458 E0.6914
G1 X76.328 Y131.872 E0.7213
G1 X75.742 Y131.872 E0.7511
G1 X75.328 Y131.458 E0.7809
G1 X75.328 Y130.765 E0.8162
G1 X79.935 Y135.372 E1.1480
G1 X80.628 Y135.372 E1.1833
G1 X75.328 Y130.072 E1.5650
G1 X75.328 Y129.379 E1.6003
G1 X81.321 Y135.372 E2.0320
G1 X82.014 Y135.372 E2.0673
G1 X75.328 Y128.686 E2.5488
G1 X75.328 Y127.993 E2.5841
G1 X82.707 Y135.372 E3.1155
G1 X83.400 Y135.372 E3.1508
G1 X75.328 Y127.300 E3.7322
G1 X75.328 Y126.607 E3.7675
G1 X84.093 Y135.372 E4.3988
G1 X84.786 Y135.372 E4.4341
G1 X75.328 Y125.914 E5.1152
G1 X75.328 Y125.221 E5.1505
G1 X85.479 Y135.372 E5.8816
G1 X86.172 Y135.372 E5.9169
G1 X75.328 Y124.528 E6.6979
G1 X75.328 Y123.836 E6.7332
G1 X86.864 Y135.372 E7.5641
G1 X87.557 Y135.372 E7.5994
G1 X75.328 Y123.143 E8.4803
G1 X75.328 Y122.450 E8.5156
G1 X88.250 Y135.372 E9.4463
G1 X88.943 Y135.372 E9.4816
G1 X75.328 Y121.757 E10.4622
G1 X75.328 Y121.064 E10.4975
G1 X89.636 Y135.372 E11.5281
G1 X90.329 Y135.372 E11.5634
G1 X75.328 Y120.371 E12.6439
G1 X75.328 Y119.678 E12.6792
G1 X91.022 Y135.372 E13.8095
G1 X91.715 Y135.372 E13.8448
G1 X75.328 Y118.985 E15.0251
G1 X73.328 Y117.678 F3000
G92 E0
G1 X73.522 Y117.872 E0.0140 F972
G1 X74.215 Y117.872 E0.0493
G1 X73.328 Y116.985 E0.1132
G1 X73.328 Y116.292 E0.1485
G1 X74.908 Y117.872 E0.2623
G1 X75.328 Y117.872 E0.2837
G1 X75.328 Y118.292 E0.3051
G1 X92.408 Y135.372 E1.5353
G1 X93.101 Y135.372 E1.5706
G1 X73.328 Y115.599 E2.9947
G1 X73.328 Y114.906 E3.0300
G1 X93.794 Y135.372 E4.5041
G1 X94.487 Y135.372 E4.5394
G1 X73.328 Y114.213 E6.0634
G1 X73.328 Y113.520 E6.0987
G1 X95.180 Y135.372 E7.6726
G1 X95.873 Y135.372 E7.7079
G1 X73.328 Y112.827 E9.3317
G1 X73.328 Y112.134 E9.3670
G1 X96.566 Y135.372 E11.0407
G1 X97.259 Y135.372 E11.0760
G1 X73.328 Y111.441 E12.7996
G1 X73.328 Y110.748 E12.8349
G1 X97.952 Y135.372 E14.6085
G1 X98.645 Y135.372 E14.6437
G1 X73.328 Y110.055 E16.4672
G1 X73.328 Y109.362 E16.5025
G1 X99.338 Y135.372 E18.3759
G1 X100.031 Y135.372 E18.4112
G1 X73.328 Y108.669 E20.3344
G1 X73.328 Y107.976 E20.3697
G1 X100.724 Y135.372 E22.3429
G1 X101.417 Y135.372 E22.3782
G1 X73.328 Y107.283 E24.4013
G1 X73.328 Y106.590 E24.4366
G1 X102.110 Y135.372 E26.5096
G1 X102.803 Y135.372 E26.5449
G1 X73.328 Y105.897 E28.6678
G1 X73.328 Y105.204 E28.7031
G1 X103.496 Y135.372 E30.8759
G1 X104.189 Y135.372 E30.9112
G1 X73.328 Y104.511 E33.1340
G1 X73.328 Y103.818 E33.1693
G1 X104.882 Y135.372 E35.4419
G1 X105.575 Y135.372 E35.4772
G1 X73.328 Y103.125 E37.7998
G1 X73.328 Y102.433 E37.8351
G1 X106.267 Y135.372 E40.2076
G1 X106.960 Y135.372 E40.2428
G1 X73.328 Y101.740 E42.6652
G1 X73.328 Y101.047 E42.7005
G1 X107.653 Y135.372 E45.1728
G1 X108.346 Y135.372 E45.2081
G1 X73.328 Y100.354 E47.7303
G1 X73.328 Y99.661 E47.7656
G1 X109.039 Y135.372 E50.3377
G1 X109.732 Y135.372 E50.3730
G1 X73.328 Y98.968 E52.9951
G1 X73.328 Y98.275 E53.0304
G1 X110.425 Y135.372 E55.7023
G1 X111.118 Y135.372 E55.7376
G1 X73.328 Y97.582 E58.4594
G1 X73.328 Y96.889 E58.4947
G1 X111.811 Y135.372 E61.2665
G1 X112.504 Y135.372 E61.3018
G1 X73.328 Y96.196 E64.1235
G1 X73.328 Y95.503 E64.1588
G1 X113.197 Y135.372 E67.0304
G1 X113.890 Y135.372 E67.0656
G1 X73.328 Y94.810 E69.9871
G1 X73.328 Y94.117 E70.0224
G1 X114.583 Y135.372 E72.9938
G1 X115.276 Y135.372 E73.0291
G1 X73.328 Y93.424 E76.0505
G1 X73.328 Y92.731 E76.0857
G1 X115.969 Y135.372 E79.1570
G1 X116.662 Y135.372 E79.1923
G1 X73.328 Y92.038 E82.3134
G1 X73.328 Y91.345 E82.3487
G1 X117.355 Y135.372 E85.5198
G1 X118.048 Y135.372 E85.5551
G1 X73.328 Y90.652 E88.7760
G1 X73.328 Y89.959 E88.8113
G1 X118.741 Y135.372 E92.0822
G1 X119.434 Y135.372 E92.1175
G1 X73.328 Y89.266 E95.4383
G1 X73.328 Y88.573 E95.4736
G1 X120.127 Y135.372 E98.8442
G1 X120.820 Y135.372 E98.8795
G1 X73.328 Y87.880 E102.3001
G1 X73.328 Y87.187 E102.3354
G1 X121.513 Y135.372 E105.8060
G1 X122.206 Y135.372 E105.8413
G1 X73.328 Y86.494 E109.3617
G1 X73.328 Y85.801 E109.3970
G1 X122.899 Y135.372 E112.9673
G1 X123.592 Y135.372 E113.0026
G1 X73.328 Y85.108 E116.6229
G1 X73.328 Y84.415 E116.6582
G1 X123.672 Y134.759 E120.2842
G1 X123.672 Y134.066 E120.3195
G1 X73.328 Y83.722 E123.9455
G1 X73.328 Y83.029 E123.9808
G1 X123.672 Y133.373 E127.6069
G1 X123.672 Y132.681 E127.6422
G1 X73.328 Y82.337 E131.2682
G1 X73.328 Y81.644 E131.3035
G1 X123.672 Y131.988 E134.9295
G1 X123.672 Y131.872 E134.9354
G1 X124.249 Y131.872 E134.9648
G1 X73.328 Y80.951 E138.6325
G1 X73.328 Y80.258 E138.6677
G1 X124.672 Y131.602 E142.3658
G1 X124.672 Y130.909 E142.4011
G1 X73.328 Y79.565 E146.0992
G1 X73.328 Y78.872 E146.1345
G1 X124.672 Y130.216 E149.8325
G1 X124.672 Y129.523 E149.8678
G1 X73.328 Y78.179 E153.5659
G1 X73.328 Y77.486 E153.6012
G1 X124.672 Y128.830 E157.2992
G1 X124.672 Y128.137 E157.3345
G1 X73.328 Y76.793 E161.0326
G1 X73.328 Y76.100 E161.0679
G1 X124.672 Y127.444 E164.7660
G1 X124.672 Y126.751 E164.8013
G1 X73.328 Y75.407 E168.4993
G1 X73.328 Y74.714 E168.5346
G1 X124.672 Y126.058 E172.2327
G1 X124.672 Y125.365 E172.2680
G1 X73.328 Y74.021 E175.9660
G1 X73.328 Y73.328 E176.0013
G1 X124.672 Y124.672 E179.6994
G1 X124.672 Y123.979 E179.7347
G1 X73.328 Y72.635 E183.4328
G1 X73.328 Y71.942 E183.4681
G1 X124.672 Y123.286 E187.1661
G1 X124.672 Y122.593 E187.2014
G1 X73.328 Y71.249 E190.8995
G1 X73.328 Y70.556 E190.9348
G1 X124.672 Y121.900 E194.6328
G1 X124.672 Y121.207 E194.6681
G1 X73.328 Y69.863 E198.3662
G1 X73.328 Y69.170 E198.4015
G1 X124.672 Y120.514 E202.0996
G1 X124.672 Y119.821 E202.1349
G1 X73.328 Y68.477 E205.8329
G1 X73.328 Y67.784 E205.8682
G1 X124.672 Y119.128 E209.5663
G1 X124.672 Y118.435 E209.6016
G1 X73.328 Y67.091 E213.2996
G1 X73.328 Y66.398 E213.3349
G1 X124.802 Y117.872 E217.0423
G1 X125.495 Y117.872 E217.0776
G1 X73.328 Y65.705 E220.8350
G1 X73.328 Y65.012 E220.8702
G1 X126.188 Y117.872 E224.6775
G1 X126.672 Y117.872 E224.7021
G1 X126.672 Y117.663 E224.7128
G1 X73.637 Y64.628 E228.5327
G1 X74.330 Y64.628 E228.5680
G1 X126.672 Y116.970 E232.3379
G1 X126.672 Y116.278 E232.3732
G1 X75.022 Y64.628 E236.0933
G1 X75.715 Y64.628 E236.1286
G1 X126.672 Y115.585 E239.7988
G1 X126.672 Y114.892 E239.8340
G1 X76.408 Y64.628 E243.4543
G1 X77.101 Y64.628 E243.4896
G1 X126.672 Y114.199 E247.0599
G1 X126.672 Y113.506 E247.0952
G1 X77.794 Y64.628 E250.6157
G1 X78.487 Y64.628 E250.6509
G1 X126.672 Y112.813 E254.1215
G1 X126.672 Y112.120 E254.1568
G1 X79.180 Y64.628 E257.5774
G1 X79.873 Y64.628 E257.6127
G1 X126.672 Y111.427 E260.9833
G1 X126.672 Y110.734 E261.0186
G1 X80.566 Y64.628 E264.3394
G1 X81.259 Y64.628 E264.3747
G1 X126.672 Y110.041 E267.6456
G1 X126.672 Y109.348 E267.6809
G1 X81.952 Y64.628 E270.9018
G1 X82.645 Y64.628 E270.9371
G1 X126.672 Y108.655 E274.1082
G1 X126.672 Y107.962 E274.1435
G1 X83.338 Y64.628 E277.2646
G1 X84.031 Y64.628 E277.2999
G1 X126.672 Y107.269 E280.3711
G1 X126.672 Y106.576 E280.4064
G1 X84.724 Y64.628 E283.4278
G1 X85.417 Y64.628 E283.4631
G1 X126.672 Y105.883 E286.4345
G1 X126.672 Y105.190 E286.4698
G1 X86.110 Y64.628 E289.3913
G1 X86.803 Y64.628 E289.4265
G1 X126.672 Y104.497 E292.2981
G1 X126.672 Y103.804 E292.3334
G1 X87.496 Y64.628 E295.1551
G1 X88.189 Y64.628 E295.1904
G1 X126.672 Y103.111 E297.9622
G1 X126.672 Y102.418 E297.9974
G1 X88.882 Y64.628 E300.7193
G1 X89.575 Y64.628 E300.7546
G1 X126.672 Y101.725 E303.4265
G1 X126.672 Y101.032 E303.4618
G1 X90.268 Y64.628 E306.0839
G1 X90.961 Y64.628 E306.1191
G1 X126.672 Y100.339 E308.6913
G1 X126.672 Y99.646 E308.7266
G1 X91.654 Y64.628 E311.2488
G1 X92.347 Y64.628 E311.2841
G1 X126.672 Y98.953 E313.7564
G1 X126.672 Y98.260 E313.7917
G1 X93.040 Y64.628 E316.2140
